img/cursor.svg

<svg fill="none" height="40" viewBox="0 0 40 40" width="40" xmlns="http://www.w3.org/2000/svg"><path d="m7.83078 12.4083c-.27199.1035-.39852.4164-.27485.6798l2.39888 5.1097c.11639.2478.01174.5432-.23469.6625l-1.92088.9301c-.24989.121-.5505.0153-.66958-.2355l-2.33913-4.9264c-.12964-.273-.47-.3695-.72362-.2051l-2.78519 1.8053c-.332661.2156-.771954-.0232-.771954-.4196v-13.55801c0-.43263.512204-.66107.834094-.372l9.55584 8.58211c.2785.2501.1936.7062-.1563.8393z" fill="#cc9245" stroke="#fff"/></svg>

<svg width="40" height="40" viewBox="0 0 40 40" fill="none" xmlns="http://www.w3.org/2000/svg">
<path d="M7.83078 12.4082C7.55879 12.5116 7.43226 12.8246 7.55593 13.088L9.95481 18.1977C10.0712 18.4455 9.96655 18.7409 9.72012 18.8602L7.79924 19.7903C7.54935 19.9113 7.24874 19.8055 7.12966 19.5547L4.79053 14.6284C4.66089 14.3553 4.32053 14.2589 4.06691 14.4233L1.28172 16.2285C0.949059 16.4441 0.509766 16.2054 0.509766 15.809V2.25097C0.509766 1.81834 1.02197 1.58989 1.34386 1.87897L10.8997 10.461C11.1782 10.7111 11.0933 11.1673 10.7434 11.3004L7.83078 12.4082Z" fill="#70A582" stroke="#FDFCF7"/>
</svg>
